**harmony	**harte	**kern	**silbe	**kern	**silbe	**rhyme	**timestamp	**phrase	**leadinstrument
*M4/4	*M4/4	*ICvox	*	*ICvox	*	*	*	*	*
*	*	*VRlead	*	*VRharmonize*VRresponse	*	*	*	*	*
*	*	*Hstimme	*	*Nstimme	*	*	*	*	*
*g:	*g:	*g:	*	*g:	*	*	*g:	*g:	*g:
*	*	*M4/4	*	*M4/4	*	*	*	*	*
*	*	*clefG2	*	*clefG2	*	*	*	*	*
1r;	1r	r;	.	r;	.	.	0	.	r
=1	=1	=1	=1	=1	=1	=1	=1	=1	=1
*>Letter>A	*>Letter>A	*>Letter>A	*>Letter>A	*>Letter>A	*>Letter>A	*>Letter>A	*>Letter>A	*>Letter>A	*>Letter>A
*>Label>Intro	*>Label>Intro	*>Label>Intro	*>Label>Intro	*>Label>Intro	*>Label>Intro	*>Label>Intro	*>Label>Intro	*>Label>Intro	*>Label>Intro
1N	N	1r	.	1r	.	.	0.395	newline	r
=2	=2	=2	=2	=2	=2	=2	=2	=2	=2
1N	N	1r	.	1r	.	.	2.558	.	r
=3	=3	=3	=3	=3	=3	=3	=3	=3	=3
*>Letter>B	*>Letter>B	*>Letter>B	*>Letter>B	*>Letter>B	*>Letter>B	*>Letter>B	*>Letter>B	*>Letter>B	*>Letter>B
*>Label>Interlude	*>Label>Interlude	*>Label>Interlude	*>Label>Interlude	*>Label>Interlude	*>Label>Interlude	*>Label>Interlude	*>Label>Interlude	*>Label>Interlude	*>Label>Interlude
1Gm	G:min	1r	.	1r	.	.	4.721	newline	trumpet
=4	=4	=4	=4	=4	=4	=4	=4	=4	=4
1FMm	F:7	1r	.	1r	.	.	6.666	.	trumpet
=5	=5	=5	=5	=5	=5	=5	=5	=5	=5
1E-MM	E-:maj7	1r	.	1r	.	.	8.61	.	trumpet
=6	=6	=6	=6	=6	=6	=6	=6	=6	=6
2Dm	D:sus4	1r	.	1r	.	.	10.555	.	trumpet
2DM	D:maj	.	.	.	.	.	11.527	.	trumpet
=7	=7	=7	=7	=7	=7	=7	=7	=7	=7
1Gm	G:min	1r	.	1r	.	.	12.499	newline	trumpet
=8	=8	=8	=8	=8	=8	=8	=8	=8	=8
1FMm	F:7	1r	.	1r	.	.	14.43	.	trumpet
=9	=9	=9	=9	=9	=9	=9	=9	=9	=9
1E-MM	E-:maj7	1r	.	1r	.	.	16.36	.	trumpet
=10	=10	=10	=10	=10	=10	=10	=10	=10	=10
1DMm	D:7	1r	.	1r	.	.	18.29	.	trumpet
=11	=11	=11	=11	=11	=11	=11	=11	=11	=11
*>Letter>C	*>Letter>C	*>Letter>C	*>Letter>C	*>Letter>C	*>Letter>C	*>Letter>C	*>Letter>C	*>Letter>C	*>Letter>C
*>Label>Verse	*>Label>Verse	*>Label>Verse	*>Label>Verse	*>Label>Verse	*>Label>Verse	*>Label>Verse	*>Label>Verse	*>Label>Verse	*>Label>Verse
1Gm	G:min	8B-	Where	1r	.	.	20.221	newline	voice
.	.	8A	can	.	.	.	.	.	.
.	.	8B-	you	.	.	.	.	.	.
.	.	8A	find	.	.	.	.	.	.
.	.	4B-	plea-	.	.	(A	.	.	.
.	.	8A	-sure_	.	.	a)	.	.	.
.	.	[8B-	Search	.	.	.	.	.	.
=12	=12	=12	=12	=12	=12	=12	=12	=12	=12
1Gm	G:min	8B-]	_	1r	.	.	22.154	.	voice
.	.	8A	the	.	.	.	.	.	.
.	.	8B-	world	.	.	.	.	.	.
.	.	8A	for	.	.	.	.	.	.
.	.	4B-	trea-	.	.	(A	.	.	.
.	.	4A	-sure	.	.	a)	.	.	.
=13	=13	=13	=13	=13	=13	=13	=13	=13	=13
1Gm	G:min	8B-	Learn	1r	.	.	24.087	.	voice
.	.	8A	scien-	.	.	.	.	.	.
.	.	8B-	-ce	.	.	.	.	.	.
.	.	8A	te-	.	.	.	.	.	.
.	.	4B-	-chno-	.	.	.	.	.	.
.	.	8c	-lo-	.	.	.	.	.	.
.	.	[8d	-gy	.	.	B	.	.	.
=14	=14	=14	=14	=14	=14	=14	=14	=14	=14
1B-M	B-:maj	8d]	_	1r	.	.	26.02	.	voice
.	.	4.d	_	.	.	.	.	.	.
.	.	2r	.	.	.	.	.	.	.
=15	=15	=15	=15	=15	=15	=15	=15	=15	=15
1Cm	C:min	8e-	Where	1r	.	.	27.953	newline	voice
.	.	8d	can	.	.	.	.	.	.
.	.	8e-	you	.	.	.	.	.	.
.	.	8d	be-	.	.	.	.	.	.
.	.	4e-	-gin	.	.	.	.	.	.
.	.	8c	to	.	.	.	.	.	.
.	.	[8d	make	.	.	.	.	.	.
=16	=16	=16	=16	=16	=16	=16	=16	=16	=16
1B-M	B-:maj	8d]	_	1r	.	.	29.88	.	voice
.	.	8c	your	.	.	.	.	.	.
.	.	8d	dreams	.	.	.	.	.	.
.	.	8c	all	.	.	.	.	.	.
.	.	4d	come	.	.	.	.	.	.
.	.	4B-	true	.	.	.	.	.	.
=17	=17	=17	=17	=17	=17	=17	=17	=17	=17
1Cmm	C:min7	8B-	On	1r	.	.	31.806	.	voice
.	.	8G	the	.	.	.	.	.	.
.	.	8B-	land	.	.	.	.	.	.
.	.	8G	or	.	.	.	.	.	.
.	.	4B-	on	.	.	.	.	.	.
.	.	8c	the	.	.	.	.	.	.
.	.	[8A	sea	.	.	B	.	.	.
=18	=18	=18	=18	=18	=18	=18	=18	=18	=18
1DM	D:maj	8A]	_	1r	.	.	33.733	.	voice
.	.	4.A	_	.	.	.	.	.	.
.	.	2r	.	.	.	.	.	.	.
=19	=19	=19	=19	=19	=19	=19	=19	=19	=19
1Gm	G:min	8B-	Where	1r	.	.	35.659	newline	voice
.	.	8A	can	.	.	.	.	.	.
.	.	8B-	you	.	.	.	.	.	.
.	.	8A	learn	.	.	.	.	.	.
.	.	4B-	to	.	.	.	.	.	.
.	.	8A	fly	.	.	C	.	.	.
.	.	[8B-	Play	.	.	.	.	.	.
=20	=20	=20	=20	=20	=20	=20	=20	=20	=20
1Gm	G:min	8B-]	_	1r	.	.	37.589	.	voice
.	.	8A	in	.	.	.	.	.	.
.	.	8B-	sports	.	.	.	.	.	.
.	.	8A	and	.	.	.	.	.	.
.	.	4B-	skin	.	.	.	.	.	.
.	.	4A	dive	.	.	C	.	.	.
=21	=21	=21	=21	=21	=21	=21	=21	=21	=21
1Gm	G:min	8B-	Stu-	1r	.	.	39.519	.	voice
.	.	8A	-dy	.	.	.	.	.	.
.	.	8B-	o-	.	.	.	.	.	.
.	.	8A	-cea-	.	.	.	.	.	.
.	.	4B-	-nog-	.	.	.	.	.	.
.	.	8c	-ra-	.	.	.	.	.	.
.	.	[8d	-phy	.	.	B	.	.	.
=22	=22	=22	=22	=22	=22	=22	=22	=22	=22
1B-M	B-:maj	8d]	_	1r	.	.	41.449	.	voice
.	.	4.d	_	.	.	.	.	.	.
.	.	2r	.	.	.	.	.	.	.
=23	=23	=23	=23	=23	=23	=23	=23	=23	=23
1Cm	C:min	8e-	Sign	1r	.	.	43.379	newline	voice
.	.	8d	up	.	.	.	.	.	.
.	.	8e-	for	.	.	.	.	.	.
.	.	8d	the	.	.	.	.	.	.
.	.	4e-	big	.	.	.	.	.	.
.	.	8c	band	.	.	D	.	.	.
.	.	[8d	Or	.	.	.	.	.	.
=24	=24	=24	=24	=24	=24	=24	=24	=24	=24
1B-M	B-:maj	8d]	_	1r	.	.	45.306	.	voice
.	.	8c	sit	.	.	.	.	.	.
.	.	8d	in	.	.	.	.	.	.
.	.	8c	the	.	.	.	.	.	.
.	.	4d	grand-	.	.	(D	.	.	.
.	.	4B-	-stand	.	.	d)	.	.	.
=25	=25	=25	=25	=25	=25	=25	=25	=25	=25
1Cmm	C:min7	8B-	When	1r	.	.	47.233	.	voice
.	.	8G	your	.	.	.	.	.	.
.	.	8B-	team	.	.	.	.	.	.
.	.	8G	and	.	.	.	.	.	.
.	.	4B-	o-	.	.	.	.	.	.
.	.	8c	-thers	.	.	.	.	.	.
.	.	[8A	meet	.	.	B	.	.	.
=26	=26	=26	=26	=26	=26	=26	=26	=26	=26
1DM	D:maj	8A]	_	2r	.	.	49.16	.	voice
.	.	4.A	_	.	.	.	.	.	.
.	.	2r	.	4r	.	.	.	.	.
.	.	.	.	8.d	In	.	.	.	.
.	.	.	.	16c	the	.	.	.	.
=27	=27	=27	=27	=27	=27	=27	=27	=27	=27
*>Letter>D	*>Letter>D	*>Letter>D	*>Letter>D	*>Letter>D	*>Letter>D	*>Letter>D	*>Letter>D	*>Letter>D	*>Letter>D
*>Label>Chorus	*>Label>Chorus	*>Label>Chorus	*>Label>Chorus	*>Label>Chorus	*>Label>Chorus	*>Label>Chorus	*>Label>Chorus	*>Label>Chorus	*>Label>Chorus
1GMM	G:maj7	2r	.	4B	Na-	.	51.087	newline	voice
.	.	.	.	4G	-vy	b	.	.	.
.	.	8r	.	2r	.	.	.	.	.
.	.	8D	Yes	.	.	.	.	.	.
.	.	8D	you	.	.	.	.	.	.
.	.	8D	can	.	.	.	.	.	.
=28	=28	=28	=28	=28	=28	=28	=28	=28	=28
1GMM	G:maj7	8G	sail	2r	.	.	52.995	.	voice
.	.	8A	the	.	.	.	.	.	.
.	.	16B	se-	.	.	.	.	.	.
.	.	8c	-ven	.	.	.	.	.	.
.	.	[16d	seas	.	.	B	.	.	.
.	.	4d]	_	4r	.	.	.	.	.
.	.	4r	.	8.c	In	.	.	.	.
.	.	.	.	16B	the	.	.	.	.
=29	=29	=29	=29	=29	=29	=29	=29	=29	=29
1Amm	A:min7	2r	.	4c	Na-	.	54.904	.	voice
.	.	.	.	4A	-vy	b	.	.	.
.	.	8r	.	2r	.	.	.	.	.
.	.	8D	Yes	.	.	.	.	.	.
.	.	8D	you	.	.	.	.	.	.
.	.	8D	can	.	.	.	.	.	.
=30	=30	=30	=30	=30	=30	=30	=30	=30	=30
1DM	D:maj	8A	put	2r	.	.	56.812	.	voice
.	.	8B	your	.	.	.	.	.	.
.	.	8c	mind	.	.	.	.	.	.
.	.	16d	at	.	.	.	.	.	.
.	.	[16e	ease	.	.	B	.	.	.
.	.	4e]	_	4r	.	.	.	.	.
.	.	4r	.	8.c	In	.	.	.	.
.	.	.	.	16B	the	.	.	.	.
=31	=31	=31	=31	=31	=31	=31	=31	=31	=31
1Amm	A:min7	2r	.	4c	Na-	.	58.72	newline	voice
.	.	.	.	4A	-vy	b	.	.	.
.	.	8r	.	2r	.	.	.	.	.
.	.	8D	Come	.	.	.	.	.	.
.	.	8D	on	.	.	.	.	.	.
.	.	8D	now	.	.	.	.	.	.
=32	=32	=32	=32	=32	=32	=32	=32	=32	=32
1DM	D:maj	8A	peo-	2r	.	.	60.628	.	voice
.	.	8B	-ple	.	.	.	.	.	.
.	.	16c	make	.	.	.	.	.	.
.	.	16d	a	.	.	.	.	.	.
.	.	[8e	stand	.	.	D	.	.	.
.	.	4e]	_	4r	.	.	.	.	.
.	.	4r	.	8.B	In	.	.	.	.
.	.	.	.	16A	the	.	.	.	.
=33	=33	=33	=33	=33	=33	=33	=33	=33	=33
1GM	G:maj	2r	.	4B	Na-	.	62.535	.	voice
.	.	.	.	4G	-vy	b	.	.	.
.	.	4r	.	4r	.	.	.	.	.
.	.	8g	Can't	8.d	In	.	.	.	.
.	.	8e	you	.	.	.	.	.	.
.	.	.	.	16c	the	.	.	.	.
=34	=34	=34	=34	=34	=34	=34	=34	=34	=34
1DM	D:maj	8g	see	4B	Na-	.	64.442	.	voice
.	.	8e	we	.	.	.	.	.	.
.	.	16g	need	4G	-vy	B	.	.	.
.	.	8g	a	.	.	.	.	.	.
.	.	[16e	hand	.	.	D	.	.	.
.	.	4e]	_	4r	.	.	.	.	.
.	.	4r	.	8.d	In	.	.	.	.
.	.	.	.	16c	the	.	.	.	.
=35	=35	=35	=35	=35	=35	=35	=35	=35	=35
1GMM	G:maj7	2r	.	4B	Na-	.	66.349	newline	voice
.	.	.	.	4G	-vy	b	.	.	.
.	.	8r	.	2r	.	.	.	.	.
.	.	8D	Come	.	.	.	.	.	.
.	.	8D	on	.	.	.	.	.	.
.	.	8D	pro-	.	.	.	.	.	.
=36	=36	=36	=36	=36	=36	=36	=36	=36	=36
1GMM	G:maj7	8G	-tect	2r	.	.	68.26	.	voice
.	.	8A	the	.	.	.	.	.	.
.	.	16B	mo-	.	.	.	.	.	.
.	.	16c	-ther	.	.	.	.	.	.
.	.	[8d	land	.	.	D	.	.	.
.	.	4d]	_	4r	.	.	.	.	.
.	.	4r	.	8.c	In	.	.	.	.
.	.	.	.	16B	the	.	.	.	.
=37	=37	=37	=37	=37	=37	=37	=37	=37	=37
1Amm	A:min7	2r	.	4c	Na-	.	70.171	.	voice
.	.	.	.	4A	-vy	b	.	.	.
.	.	8r	.	2r	.	.	.	.	.
.	.	8D	Come	.	.	.	.	.	.
.	.	8D	on	.	.	.	.	.	.
.	.	8D	and	.	.	.	.	.	.
=38	=38	=38	=38	=38	=38	=38	=38	=38	=38
1DM	D:maj	8A	join	2r	.	.	72.082	.	voice
.	.	8B	your	.	.	.	.	.	.
.	.	16c	fel-	.	.	.	.	.	.
.	.	16d	-low	.	.	.	.	.	.
.	.	[8e	man	.	.	D	.	.	.
.	.	4e]	_	4r	.	.	.	.	.
.	.	4r	.	8.c	In	.	.	.	.
.	.	.	.	16B	the	.	.	.	.
=39	=39	=39	=39	=39	=39	=39	=39	=39	=39
1Amm	A:min7	2r	.	4c	Na-	.	73.993	newline	voice
.	.	.	.	4A	-vy	b	.	.	.
.	.	8r	.	2r	.	.	.	.	.
.	.	8g	Come	.	.	.	.	.	.
.	.	8g	on	.	.	.	.	.	.
.	.	8e	peo	.	.	.	.	.	.
=40	=40	=40	=40	=40	=40	=40	=40	=40	=40
1DM	D:maj	8g	ple,	2r	.	.	75.91	.	voice
.	.	8e	and	.	.	.	.	.	.
.	.	16g	make	.	.	.	.	.	.
.	.	16g	a	.	.	.	.	.	.
.	.	[8e	stand	.	.	D	.	.	.
.	.	4e]	_	4r	.	.	.	.	.
.	.	4r	.	8.B	In	.	.	.	.
.	.	.	.	16A	the	.	.	.	.
=41	=41	=41	=41	=41	=41	=41	=41	=41	=41
1GM	G:maj	4r	.	4B	Na-	.	77.826	.	voice
.	.	8g	In	4G	-vy	b	.	.	.
.	.	16e	the	.	.	.	.	.	.
.	.	[16g	na-	.	.	.	.	.	.
.	.	8g]	_	4r	.	.	.	.	.
.	.	8e	-vy	.	.	b	.	.	.
.	.	4r	.	8.d	In	.	.	.	.
.	.	.	.	16c	the	.	.	.	.
=42	=42	=42	=42	=42	=42	=42	=42	=42	=42
1DM	D:maj	4r	.	4B	Na-	.	79.742	.	voice
.	.	8r	.	4G	-vy	b	.	.	.
.	.	4.g	aah	.	.	.	.	.	.
.	.	.	.	4r	.	.	.	.	.
.	.	4r	.	4r	.	.	.	.	.
=43	=43	=43	=43	=43	=43	=43	=43	=43	=43
*>Letter>A	*>Letter>A	*>Letter>A	*>Letter>A	*>Letter>A	*>Letter>A	*>Letter>A	*>Letter>A	*>Letter>A	*>Letter>A
*>Label>Trans	*>Label>Trans	*>Label>Trans	*>Label>Trans	*>Label>Trans	*>Label>Trans	*>Label>Trans	*>Label>Trans	*>Label>Trans	*>Label>Trans
1Gm	G:min	1r	.	1r	.	.	81.658	newline	voice
=44	=44	=44	=44	=44	=44	=44	=44	=44	=44
1N	N	1r	.	1r	.	.	83.564	.	voice
=45	=45	=45	=45	=45	=45	=45	=45	=45	=45
1N	N	1r	.	1r	.	.	85.47	.	voice
=46	=46	=46	=46	=46	=46	=46	=46	=46	=46
1N	N	1r	.	1r	.	.	87.375	.	voice
=47	=47	=47	=47	=47	=47	=47	=47	=47	=47
*>Letter>C	*>Letter>C	*>Letter>C	*>Letter>C	*>Letter>C	*>Letter>C	*>Letter>C	*>Letter>C	*>Letter>C	*>Letter>C
*>Label>Verse	*>Label>Verse	*>Label>Verse	*>Label>Verse	*>Label>Verse	*>Label>Verse	*>Label>Verse	*>Label>Verse	*>Label>Verse	*>Label>Verse
1Gm	G:min	8B-	If	1r	.	.	89.281	newline	voice
.	.	8A	you	.	.	.	.	.	.
.	.	8B-	like	.	.	.	.	.	.
.	.	8A	ad-	.	.	.	.	.	.
.	.	4B-	-ven-	.	.	(E	.	.	.
.	.	8A	-ture	.	.	e)	.	.	.
.	.	[8B-	Don't	.	.	.	.	.	.
=48	=48	=48	=48	=48	=48	=48	=48	=48	=48
1Gm	G:min	8B-]	_	1r	.	.	91.204	.	voice
.	.	8A	you	.	.	.	.	.	.
.	.	8B-	wait	.	.	.	.	.	.
.	.	8A	to	.	.	.	.	.	.
.	.	4B-	en-	.	.	(E	.	.	.
.	.	4A	-ter	.	.	e)	.	.	.
=49	=49	=49	=49	=49	=49	=49	=49	=49	=49
1Gm	G:min	8B-	The	1r	.	.	93.126	.	voice
.	.	8A	re-	.	.	.	.	.	.
.	.	8B-	-cruit-	.	.	.	.	.	.
.	.	8A	-ing	.	.	.	.	.	.
.	.	4B-	of-	.	.	.	.	.	.
.	.	8c	-fice	.	.	.	.	.	.
.	.	[8d	fast	.	.	F	.	.	.
=50	=50	=50	=50	=50	=50	=50	=50	=50	=50
1B-M	B-:maj	8d]	_	1r	.	.	95.049	.	voice
.	.	4.d	_	.	.	.	.	.	.
.	.	2r	.	.	.	.	.	.	.
=51	=51	=51	=51	=51	=51	=51	=51	=51	=51
1Cm	C:min	8e-	Don't	1r	.	.	96.971	newline	voice
.	.	8d	you	.	.	.	.	.	.
.	.	8e-	he-	.	.	.	.	.	.
.	.	8d	-si-	.	.	.	.	.	.
.	.	4e-	-tate	.	.	G	.	.	.
.	.	8c	There	.	.	.	.	.	.
.	.	[8d	is	.	.	.	.	.	.
=52	=52	=52	=52	=52	=52	=52	=52	=52	=52
1B-M	B-:maj	8d]	_	1r	.	.	98.897	.	voice
.	.	8c	no	.	.	.	.	.	.
.	.	8d	need	.	.	.	.	.	.
.	.	8c	to	.	.	.	.	.	.
.	.	4d	wait	.	.	G	.	.	.
.	.	8G	They're	.	.	.	.	.	.
.	.	[8B-	si-	.	.	.	.	.	.
=53	=53	=53	=53	=53	=53	=53	=53	=53	=53
1Cmm	C:min7	8B-]	_	1r	.	.	100.822	.	voice
.	.	8G	-gning	.	.	.	.	.	.
.	.	8B-	up	.	.	.	.	.	.
.	.	8G	new	.	.	.	.	.	.
.	.	4B-	sea-	.	.	.	.	.	.
.	.	8c	-men	.	.	.	.	.	.
.	.	[8A	fast	.	.	F	.	.	.
=54	=54	=54	=54	=54	=54	=54	=54	=54	=54
1DM	D:maj	8A]	_	1r	.	.	102.747	.	voice
.	.	4.A	_	.	.	.	.	.	.
.	.	2r	.	.	.	.	.	.	.
=55	=55	=55	=55	=55	=55	=55	=55	=55	=55
1Gm	G:min	8B-	May-	1r	.	.	104.672	newline	voice
.	.	8A	-be	.	.	.	.	.	.
.	.	8B-	you	.	.	.	.	.	.
.	.	8A	are	.	.	.	.	.	.
.	.	4B-	too	.	.	.	.	.	.
.	.	8A	young	.	.	.	.	.	.
.	.	[8B-	To	.	.	.	.	.	.
=56	=56	=56	=56	=56	=56	=56	=56	=56	=56
1Gm	G:min	8B-]	_	1r	.	.	106.597	.	voice
.	.	8A	join	.	.	.	.	.	.
.	.	8B-	up	.	.	.	.	.	.
.	.	8A	to-	.	.	.	.	.	.
.	.	4B-	-day	.	.	G	.	.	.
.	.	4A	But	.	.	.	.	.	.
=57	=57	=57	=57	=57	=57	=57	=57	=57	=57
1Gm	G:min	8B-	don't	1r	.	.	108.523	.	voice
.	.	8A	you	.	.	.	.	.	.
.	.	8B-	wor-	.	.	.	.	.	.
.	.	8A	-ry	.	.	.	.	.	.
.	.	4B-	'bout	.	.	.	.	.	.
.	.	8c	a	.	.	.	.	.	.
.	.	[8d	thing	.	.	B	.	.	.
=58	=58	=58	=58	=58	=58	=58	=58	=58	=58
1B-M	B-:maj	8d]	_	1r	.	.	110.448	.	voice
.	.	4.d	_	.	.	.	.	.	.
.	.	2r	.	.	.	.	.	.	.
=59	=59	=59	=59	=59	=59	=59	=59	=59	=59
1Cm	C:min	8e-	For	1r	.	.	112.373	newline	voice
.	.	8d	I'm	.	.	.	.	.	.
.	.	8e-	sure	.	.	.	.	.	.
.	.	8d	there	.	.	.	.	.	.
.	.	4e-	will	.	.	.	.	.	.
.	.	8c	be	.	.	B	.	.	.
.	.	[8d	Al-	.	.	.	.	.	.
=60	=60	=60	=60	=60	=60	=60	=60	=60	=60
1B-M	B-:maj	8d]	_	1r	.	.	114.297	.	voice
.	.	8c	-ways	.	.	.	.	.	.
.	.	8d	a	.	.	.	.	.	.
.	.	8c	good	.	.	.	.	.	.
.	.	4d	na-	.	.	.	.	.	.
.	.	4B-	-vy	.	.	b	.	.	.
=61	=61	=61	=61	=61	=61	=61	=61	=61	=61
1Cmm	C:min7	8B-	Pro-	1r	.	.	116.221	.	voice
.	.	8G	-tec-	.	.	.	.	.	.
.	.	8B-	-ting	.	.	.	.	.	.
.	.	8G	the	.	.	.	.	.	.
.	.	4B-	land	.	.	.	.	.	.
.	.	8c	and	.	.	.	.	.	.
.	.	[8A	sea	.	.	B	.	.	.
=62	=62	=62	=62	=62	=62	=62	=62	=62	=62
1DM	D:maj	8A]	_	2r	.	.	118.144	.	voice
.	.	4.A	_	.	.	.	.	.	.
.	.	2r	.	4r	.	.	.	.	.
.	.	.	.	8.d	In	.	.	.	.
.	.	.	.	16c	the	.	.	.	.
=63	=63	=63	=63	=63	=63	=63	=63	=63	=63
*>Letter>D	*>Letter>D	*>Letter>D	*>Letter>D	*>Letter>D	*>Letter>D	*>Letter>D	*>Letter>D	*>Letter>D	*>Letter>D
*>Label>Chorus	*>Label>Chorus	*>Label>Chorus	*>Label>Chorus	*>Label>Chorus	*>Label>Chorus	*>Label>Chorus	*>Label>Chorus	*>Label>Chorus	*>Label>Chorus
1GMM	G:maj7	2r	.	4B	Na-	.	120.068	newline	voice
.	.	.	.	4G	-vy	b	.	.	.
.	.	8r	.	2r	.	.	.	.	.
.	.	8D	Yes	.	.	.	.	.	.
.	.	8D	you	.	.	.	.	.	.
.	.	8D	can	.	.	.	.	.	.
=64	=64	=64	=64	=64	=64	=64	=64	=64	=64
1GMM	G:maj7	8G	sail	2r	.	.	121.976	.	voice
.	.	8A	the	.	.	.	.	.	.
.	.	16B	se-	.	.	.	.	.	.
.	.	8c	-ven	.	.	.	.	.	.
.	.	[16d	seas	.	.	B	.	.	.
.	.	4d]	_	4r	.	.	.	.	.
.	.	4r	.	8.c	In	.	.	.	.
.	.	.	.	16B	the	.	.	.	.
=65	=65	=65	=65	=65	=65	=65	=65	=65	=65
1Amm	A:min7	2r	.	4c	Na-	.	123.883	.	voice
.	.	.	.	4A	-vy	b	.	.	.
.	.	8r	.	2r	.	.	.	.	.
.	.	8D	Yes	.	.	.	.	.	.
.	.	8D	you	.	.	.	.	.	.
.	.	8D	can	.	.	.	.	.	.
=66	=66	=66	=66	=66	=66	=66	=66	=66	=66
1DM	D:maj	8A	put	2r	.	.	125.79	.	voice
.	.	8B	your	.	.	.	.	.	.
.	.	8c	mind	.	.	.	.	.	.
.	.	16d	at	.	.	.	.	.	.
.	.	[16e	ease	.	.	B	.	.	.
.	.	4e]	_	4r	.	.	.	.	.
.	.	4r	.	8.c	In	.	.	.	.
.	.	.	.	16B	the	.	.	.	.
=67	=67	=67	=67	=67	=67	=67	=67	=67	=67
1Amm	A:min7	2r	.	4c	Na-	.	127.698	newline	voice
.	.	.	.	4A	-vy	b	.	.	.
.	.	8r	.	2r	.	.	.	.	.
.	.	8D	Come	.	.	.	.	.	.
.	.	8D	on	.	.	.	.	.	.
.	.	8D	be	.	.	.	.	.	.
=68	=68	=68	=68	=68	=68	=68	=68	=68	=68
1DM	D:maj	8A	bold	2r	.	.	129.602	.	voice
.	.	8B	and	.	.	.	.	.	.
.	.	16c	make	.	.	.	.	.	.
.	.	16d	a	.	.	.	.	.	.
.	.	[8e	stand	.	.	D	.	.	.
.	.	4e]	_	4r	.	.	.	.	.
.	.	4r	.	8.B	In	.	.	.	.
.	.	.	.	16A	the	.	.	.	.
=69	=69	=69	=69	=69	=69	=69	=69	=69	=69
1GM	G:maj	2r	.	4B	Na-	.	131.506	.	voice
.	.	.	.	4G	-vy	b	.	.	.
.	.	4r	.	4r	.	.	.	.	.
.	.	8g	Can't	8.d	In	.	.	.	.
.	.	8e	you	.	.	.	.	.	.
.	.	.	.	16c	the	.	.	.	.
=70	=70	=70	=70	=70	=70	=70	=70	=70	=70
1DM	D:maj	8g	see	4B	Na-	.	133.411	.	voice
.	.	8e	we	.	.	.	.	.	.
.	.	16g	need	4G	-vy	.	.	.	.
.	.	8g	a	.	.	.	.	.	.
.	.	[16e	hand	.	.	D	.	.	.
.	.	4e]	_	4r	.	.	.	.	.
.	.	4r	.	8.d	In	.	.	.	.
.	.	.	.	16c	the	.	.	.	.
=71	=71	=71	=71	=71	=71	=71	=71	=71	=71
1GMM	G:maj7	2r	.	4B	Na-	.	135.315	newline	voice
.	.	.	.	4G	-vy	b	.	.	.
.	.	8r	.	2r	.	.	.	.	.
.	.	8D	Come	.	.	.	.	.	.
.	.	8D	on,	.	.	.	.	.	.
.	.	8D	pro-	.	.	.	.	.	.
=72	=72	=72	=72	=72	=72	=72	=72	=72	=72
1GMM	G:maj7	8G	-tect	2r	.	.	137.231	.	voice
.	.	8A	the	.	.	.	.	.	.
.	.	16B	mo-	.	.	.	.	.	.
.	.	16c	-ther-	.	.	.	.	.	.
.	.	[8d	-land	.	.	D	.	.	.
.	.	4d]	_	4r	.	.	.	.	.
.	.	4r	.	8.c	In	.	.	.	.
.	.	.	.	16B	the	.	.	.	.
=73	=73	=73	=73	=73	=73	=73	=73	=73	=73
1Amm	A:min7	2r	.	4c	Na-	.	139.148	.	voice
.	.	.	.	4A	-vy	b	.	.	.
.	.	8r	.	2r	.	.	.	.	.
.	.	8D	Come	.	.	.	.	.	.
.	.	8D	on	.	.	.	.	.	.
.	.	8D	and	.	.	.	.	.	.
=74	=74	=74	=74	=74	=74	=74	=74	=74	=74
1DM	D:maj	8A	join	2r	.	.	141.064	.	voice
.	.	8B	your	.	.	.	.	.	.
.	.	16c	fel-	.	.	.	.	.	.
.	.	16d	-low	.	.	.	.	.	.
.	.	[8e	man	.	.	D	.	.	.
.	.	4e]	_	4r	.	.	.	.	.
.	.	4r	.	8.c	In	.	.	.	.
.	.	.	.	16B	the	.	.	.	.
=75	=75	=75	=75	=75	=75	=75	=75	=75	=75
1Amm	A:min7	2r	.	4c	Na-	.	142.98	newline	voice
.	.	.	.	4A	-vy	b	.	.	.
.	.	8r	.	2r	.	.	.	.	.
.	.	8D	Come	.	.	.	.	.	.
.	.	8D	on	.	.	.	.	.	.
.	.	8D	be	.	.	.	.	.	.
=76	=76	=76	=76	=76	=76	=76	=76	=76	=76
1DM	D:maj	8A	bold	2r	.	.	144.898	.	voice
.	.	8B	and	.	.	.	.	.	.
.	.	16c	make	.	.	.	.	.	.
.	.	16d	a	.	.	.	.	.	.
.	.	[8e	stand	.	.	D	.	.	.
.	.	4e]	_	4r	.	.	.	.	.
.	.	4r	.	8.B	In	.	.	.	.
.	.	.	.	16A	the	.	.	.	.
=77	=77	=77	=77	=77	=77	=77	=77	=77	=77
1GM	G:maj	4r	.	4B	Na-	.	146.815	.	voice
.	.	8g	In	4G	-vy	b	.	.	.
.	.	16e	the	.	.	.	.	.	.
.	.	[16g	na-	.	.	.	.	.	.
.	.	8g]	_	4r	.	.	.	.	.
.	.	8e	-vy	.	.	b	.	.	.
.	.	4r	.	8.d	In	.	.	.	.
.	.	.	.	16c	the	.	.	.	.
=78	=78	=78	=78	=78	=78	=78	=78	=78	=78
1DM	D:maj	4r	.	4B	Na-	.	148.733	.	voice
.	.	16g	In	4G	-vy	b	.	.	.
.	.	16e	the	.	.	.	.	.	.
.	.	[8a	na-	.	.	.	.	.	.
.	.	8a]	_	4r	.	.	.	.	.
.	.	8g	-vy	.	.	b	.	.	.
.	.	4r	.	4r	.	.	.	.	.
=79	=79	=79	=79	=79	=79	=79	=79	=79	=79
*>Letter>A	*>Letter>A	*>Letter>A	*>Letter>A	*>Letter>A	*>Letter>A	*>Letter>A	*>Letter>A	*>Letter>A	*>Letter>A
*>Label>Trans	*>Label>Trans	*>Label>Trans	*>Label>Trans	*>Label>Trans	*>Label>Trans	*>Label>Trans	*>Label>Trans	*>Label>Trans	*>Label>Trans
1N	N	1r	.	1r	.	.	150.65	newline	voice
=80	=80	=80	=80	=80	=80	=80	=80	=80	=80
1N	N	1r	.	1r	.	.	152.531	.	voice
=81	=81	=81	=81	=81	=81	=81	=81	=81	=81
1N	N	1r	.	1r	.	.	154.413	.	voice
=82	=82	=82	=82	=82	=82	=82	=82	=82	=82
1N	N	1r	.	1r	.	.	156.294	.	voice
=83	=83	=83	=83	=83	=83	=83	=83	=83	=83
1N	N	1r	.	1r	.	.	158.175	.	voice
=84	=84	=84	=84	=84	=84	=84	=84	=84	=84
1N	N	1r	.	1r	.	.	160.056	.	voice
=85	=85	=85	=85	=85	=85	=85	=85	=85	=85
*>Letter>E	*>Letter>E	*>Letter>E	*>Letter>E	*>Letter>E	*>Letter>E	*>Letter>E	*>Letter>E	*>Letter>E	*>Letter>E
*>Label>Bridge	*>Label>Bridge	*>Label>Bridge	*>Label>Bridge	*>Label>Bridge	*>Label>Bridge	*>Label>Bridge	*>Label>Bridge	*>Label>Bridge	*>Label>Bridge
1Gmm	G:min7	1r	.	1r	.	.	161.937	newline	trumpet
=86	=86	=86	=86	=86	=86	=86	=86	=86	=86
1Gmm	G:min7	1r	.	1r	.	.	163.838	.	trumpet
=87	=87	=87	=87	=87	=87	=87	=87	=87	=87
1Gmm	G:min7	1r	.	1r	.	.	165.739	.	trumpet
=88	=88	=88	=88	=88	=88	=88	=88	=88	=88
1Gmm	G:min7	1r	.	1r	.	.	167.64	.	trumpet
=89	=89	=89	=89	=89	=89	=89	=89	=89	=89
1Gmm	G:min7	1r	.	1r	.	.	169.541	newline	trumpet
=90	=90	=90	=90	=90	=90	=90	=90	=90	=90
1Gmm	G:min7	1r	.	1r	.	.	171.454	.	trumpet
=91	=91	=91	=91	=91	=91	=91	=91	=91	=91
1Gmm	G:min7	1r	.	1r	.	.	173.366	.	trumpet
=92	=92	=92	=92	=92	=92	=92	=92	=92	=92
1Gmm	G:min7	1r	.	1r	.	.	175.278	.	trumpet
=93	=93	=93	=93	=93	=93	=93	=93	=93	=93
1Gmm	G:min7	1r	.	1r	.	.	177.191	newline	trumpet
=94	=94	=94	=94	=94	=94	=94	=94	=94	=94
1Gmm	G:min7	1r	.	1r	.	.	179.09	.	trumpet
=95	=95	=95	=95	=95	=95	=95	=95	=95	=95
1Gmm	G:min7	1r	.	1r	.	.	180.989	.	trumpet
=96	=96	=96	=96	=96	=96	=96	=96	=96	=96
1Gmm	G:min7	1r	.	1r	.	.	182.888	.	trumpet
=97	=97	=97	=97	=97	=97	=97	=97	=97	=97
1Gmm	G:min7	1r	.	1r	.	.	184.787	newline	trumpet
=98	=98	=98	=98	=98	=98	=98	=98	=98	=98
1Gmm	G:min7	1r	.	1r	.	.	186.684	.	trumpet
=99	=99	=99	=99	=99	=99	=99	=99	=99	=99
1Gmm	G:min7	1r	.	1r	.	.	188.581	.	trumpet
=100	=100	=100	=100	=100	=100	=100	=100	=100	=100
1Gmm	G:min7	1r	.	1r	.	.	190.478	.	trumpet
=101	=101	=101	=101	=101	=101	=101	=101	=101	=101
1Gmm	G:min7	1r	.	1r	.	.	192.374	newline	trumpet
=102	=102	=102	=102	=102	=102	=102	=102	=102	=102
1Gmm	G:min7	1r	.	2r	.	.	194.233	.	trumpet
.	.	.	.	4r	.	.	.	.	.
.	.	.	.	8.d	In	.	.	.	.
.	.	.	.	16c	the	.	.	.	.
=103	=103	=103	=103	=103	=103	=103	=103	=103	=103
*>Letter>D	*>Letter>D	*>Letter>D	*>Letter>D	*>Letter>D	*>Letter>D	*>Letter>D	*>Letter>D	*>Letter>D	*>Letter>D
*>Label>Chorus	*>Label>Chorus	*>Label>Chorus	*>Label>Chorus	*>Label>Chorus	*>Label>Chorus	*>Label>Chorus	*>Label>Chorus	*>Label>Chorus	*>Label>Chorus
1GMM	G:maj7	2r	.	4B	Na-	.	196.093	newline	voice
.	.	.	.	4G	-vy	b	.	.	.
.	.	8r	.	2r	.	.	.	.	.
.	.	8D	Yes	.	.	.	.	.	.
.	.	8D	you	.	.	.	.	.	.
.	.	8D	can	.	.	.	.	.	.
=104	=104	=104	=104	=104	=104	=104	=104	=104	=104
1GMM	G:maj7	8G	sail	2r	.	.	197.974	.	voice
.	.	8A	the	.	.	.	.	.	.
.	.	16B	se-	.	.	.	.	.	.
.	.	8c	-ven	.	.	.	.	.	.
.	.	[16d	seas	.	.	B	.	.	.
.	.	4d]	_	4r	.	.	.	.	.
.	.	4r	.	8.c	In	.	.	.	.
.	.	.	.	16B	the	.	.	.	.
=105	=105	=105	=105	=105	=105	=105	=105	=105	=105
1Amm	A:min7	2r	.	4c	Na-	.	199.855	.	voice
.	.	.	.	4A	-vy	b	.	.	.
.	.	8r	.	2r	.	.	.	.	.
.	.	8D	Yes	.	.	.	.	.	.
.	.	8D	you	.	.	.	.	.	.
.	.	8D	can	.	.	.	.	.	.
=106	=106	=106	=106	=106	=106	=106	=106	=106	=106
1DM	D:maj	8A	put	2r	.	.	201.737	.	voice
.	.	8B	your	.	.	.	.	.	.
.	.	8c	mind	.	.	.	.	.	.
.	.	16d	at	.	.	.	.	.	.
.	.	[16e	ease	.	.	B	.	.	.
.	.	4e]	_	4r	.	.	.	.	.
.	.	4r	.	8.c	In	.	.	.	.
.	.	.	.	16B	the	.	.	.	.
=107	=107	=107	=107	=107	=107	=107	=107	=107	=107
1Amm	A:min7	2r	.	4c	Na-	.	203.618	newline	voice
.	.	.	.	4A	-vy	b	.	.	.
.	.	8r	.	2r	.	.	.	.	.
.	.	8D	Come	.	.	.	.	.	.
.	.	8D	on	.	.	.	.	.	.
.	.	8D	be	.	.	.	.	.	.
=108	=108	=108	=108	=108	=108	=108	=108	=108	=108
1DM	D:maj	8A	bold	2r	.	.	205.492	.	voice
.	.	8B	and	.	.	.	.	.	.
.	.	16c	make	.	.	.	.	.	.
.	.	16d	a	.	.	.	.	.	.
.	.	[8e	stand__	.	.	D	.	.	.
.	.	4e]	_	4r	.	.	.	.	.
.	.	4r	.	8.B	In	.	.	.	.
.	.	.	.	16A	the	.	.	.	.
=109	=109	=109	=109	=109	=109	=109	=109	=109	=109
1GM	G:maj	2r	.	4B	Na-	.	207.365	.	voice
.	.	.	.	4G	-vy	b	.	.	.
.	.	4r	.	4r	.	.	.	.	.
.	.	8g	Can't	8.d	In	.	.	.	.
.	.	8e	you	.	.	.	.	.	.
.	.	.	.	16c	the	.	.	.	.
=110	=110	=110	=110	=110	=110	=110	=110	=110	=110
1DM	D:maj	8g	see	4B	Na-	.	209.239	.	voice
.	.	8e	we	.	.	.	.	.	.
.	.	16g	need	4G	-vy	.	.	.	.
.	.	8g	a	.	.	.	.	.	.
.	.	[16e	hand	.	.	D	.	.	.
.	.	4e]	_	4r	.	.	.	.	.
.	.	4r	.	8.d	In	.	.	.	.
.	.	.	.	16c	the	.	.	.	.
=111	=111	=111	=111	=111	=111	=111	=111	=111	=111
*>Label>>Fadeout	*>Label>>Fadeout	*>Label>>Fadeout	*>Label>>Fadeout	*>Label>>Fadeout	*>Label>>Fadeout	*>Label>>Fadeout	*>Label>>Fadeout	*>Label>>Fadeout	*>Label>>Fadeout
1GMM	G:maj7	2r	.	4B	Na-	.	211.113	newline	voice
.	.	.	.	4G	-vy	b	.	.	.
.	.	4r	.	2r	.	.	.	.	.
.	.	8g	Come	.	.	.	.	.	.
.	.	8e	pro-	.	.	.	.	.	.
=112	=112	=112	=112	=112	=112	=112	=112	=112	=112
1GMM	G:maj7	8g	-tect	2r	.	.	213.008	.	voice
.	.	8e	the	.	.	.	.	.	.
.	.	16g	mo-	.	.	.	.	.	.
.	.	8g	-ther-	.	.	.	.	.	.
.	.	[16e	-land_	.	.	D	.	.	.
.	.	4e]	_	4r	.	.	.	.	.
.	.	4r	.	8.c	In	.	.	.	.
.	.	.	.	16B	the	.	.	.	.
=113	=113	=113	=113	=113	=113	=113	=113	=113	=113
1Amm	A:min7	2r	.	4c	Na-	.	214.904	.	voice
.	.	.	.	4A	-vy	b	.	.	.
.	.	8r	.	2r	.	.	.	.	.
.	.	8e	Come	.	.	.	.	.	.
.	.	8g	on	.	.	.	.	.	.
.	.	8e	and	.	.	.	.	.	.
=114	=114	=114	=114	=114	=114	=114	=114	=114	=114
1DM	D:maj	8g	join	2r	.	.	216.799	.	voice
.	.	8e	your	.	.	.	.	.	.
.	.	16g	fel-	.	.	.	.	.	.
.	.	8e	-low	.	.	.	.	.	.
.	.	[16g	men	.	.	.	.	.	.
.	.	4g]	_	4r	.	.	.	.	.
.	.	4r	.	8.c	In	.	.	.	.
.	.	.	.	16B	the	.	.	.	.
=115	=115	=115	=115	=115	=115	=115	=115	=115	=115
1Amm	A:min7	1r	.	4c	Na-	.	218.695	newline	voice
.	.	.	.	4A	-vy	D	.	.	.
.	.	.	.	2r	.	.	.	.	.
=116	=116	=116	=116	=116	=116	=116	=116	=116	=116
1DM	D:maj	1r	.	1r	.	.	220.022	.	voice
=117	=117	=117	=117	=117	=117	=117	=117	=117	=117
1GM	G:maj	1r	.	1r	.	.	221.349	.	voice
=118	=118	=118	=118	=118	=118	=118	=118	=118	=118
1DM	D:maj	1r	.	1r	.	.	222.676	.	voice
1r;	1r	r;	.	r;	.	.	224.003	.	r
1r;	1r	r;	.	r;	.	.	226.247	.	r
*-	*-	*-	*-	*-	*-	*-	*-	*-	*-
!!!BillboardChartDate: 1979/05/12
!!!BillboardPeak: 3
!!!BillboardWeeksOnChart: 18
!!!COC: Village People
!!!ENC: Nathaniel Condit-Schultz
!!!EST: Awating manual error checking and editing.
!!!OTL: In The Navy
!!!RDF**chordsym: original McGill chord annotation + (implied pitch class set, with bass pitch in first position)
!!!RDF**harmony: **recip + pitch class of root + harmonic quality
!!!RDF**leadinstrument: original McGill primary instrumentation annotation
!!!RDF**phrase: newline = linebreak in original McGill transcription
!!!RDF**timestamp: McGill audio timestamp in seconds
!!!RDT: 2017/01/12/
!!!SampleActualRank: 5
!!!SampleID#: 0306
!!!SampleTargetRank: 4
!!!MBID: 4d308e4f-51a5-4fa4-8a8b-41435f9d7420
